X: 34703
T: Road To Garrison, The
R: reel
M: 4/4
K: Dmajor
A3B ADFA|BFAF EDFE|DA,A,2 A,B,DF|GBAG FDDA|
BA^GB ADFA|B2 AF EDFE|DB,B,2 A,2dB|1 AFEG FDD2:|2 AFEG FDFA||
d3f afbf|afbf afef|d2fd Adfa|bfaf fee2|
fgab aff2|gfeg fedB|ABde fdec|dBAG FDD2:|

